material/.icons/material/table-column-plus-before.svg

<svg xmlns="http://www.w3.org/2000/svg" viewBox="0 0 24 24"><path d="M13 2a2 2 0 00-2 2v16a2 2 0 002 2h9V2h-9m7 8v4h-7v-4h7m0 6v4h-7v-4h7m0-12v4h-7V4h7M9 11H6V8H4v3H1v2h3v3h2v-3h3v-2z"/></svg>

<?xml version="1.0" encoding="UTF-8"?><!DOCTYPE svg PUBLIC "-//W3C//DTD SVG 1.1//EN" "http://www.w3.org/Graphics/SVG/1.1/DTD/svg11.dtd"><svg xmlns="http://www.w3.org/2000/svg" xmlns:xlink="http://www.w3.org/1999/xlink" version="1.1" id="mdi-table-column-plus-before" width="24" height="24" viewBox="0 0 24 24"><path d="M13,2A2,2 0 0,0 11,4V20A2,2 0 0,0 13,22H22V2H13M20,10V14H13V10H20M20,16V20H13V16H20M20,4V8H13V4H20M9,11H6V8H4V11H1V13H4V16H6V13H9V11Z" /></svg>
